img/svg/stone-shape-12.svg

<svg width="36" height="36" viewBox="0 0 36 36" fill="none" xmlns="http://www.w3.org/2000/svg">
<mask id="path-1-inside-1_615_12473" fill="white">
<path d="M25.586 3L29 6.414V29.586L25.586 33H10.414L7 29.586V6.414L10.414 3H25.586ZM26 2H10L6 6V30L10 34H26L30 30V6L26 2Z"/>
</mask>
<path d="M25.586 3L29 6.414V29.586L25.586 33H10.414L7 29.586V6.414L10.414 3H25.586ZM26 2H10L6 6V30L10 34H26L30 30V6L26 2Z" fill="#A39D94"/>
<path d="M25.586 3L26.2931 2.29289L26.0002 2H25.586V3ZM29 6.414H30V5.99979L29.7071 5.70689L29 6.414ZM29 29.586L29.7071 30.2931L30 30.0002V29.586H29ZM25.586 33V34H26.0002L26.2931 33.7071L25.586 33ZM10.414 33L9.70689 33.7071L9.99979 34H10.414V33ZM7 29.586H6V30.0002L6.29289 30.2931L7 29.586ZM7 6.414L6.29289 5.70689L6 5.99979V6.414H7ZM10.414 3V2H9.99979L9.70689 2.29289L10.414 3ZM26 2L26.7071 1.29289L26.4142 1H26V2ZM10 2V1H9.58579L9.29289 1.29289L10 2ZM6 6L5.29289 5.29289L5 5.58579V6H6ZM6 30H5V30.4142L5.29289 30.7071L6 30ZM10 34L9.29289 34.7071L9.58579 35H10V34ZM26 34V35H26.4142L26.7071 34.7071L26 34ZM30 30L30.7071 30.7071L31 30.4142V30H30ZM30 6H31V5.58579L30.7071 5.29289L30 6ZM24.8789 3.70711L28.2929 7.12111L29.7071 5.70689L26.2931 2.29289L24.8789 3.70711ZM28 6.414V29.586H30V6.414H28ZM28.2929 28.8789L24.8789 32.2929L26.2931 33.7071L29.7071 30.2931L28.2929 28.8789ZM25.586 32H10.414V34H25.586V32ZM11.1211 32.2929L7.70711 28.8789L6.29289 30.2931L9.70689 33.7071L11.1211 32.2929ZM8 29.586V6.414H6V29.586H8ZM7.70711 7.12111L11.1211 3.70711L9.70689 2.29289L6.29289 5.70689L7.70711 7.12111ZM10.414 4H25.586V2H10.414V4ZM26 1H10V3H26V1ZM9.29289 1.29289L5.29289 5.29289L6.70711 6.70711L10.7071 2.70711L9.29289 1.29289ZM5 6V30H7V6H5ZM5.29289 30.7071L9.29289 34.7071L10.7071 33.2929L6.70711 29.2929L5.29289 30.7071ZM10 35H26V33H10V35ZM26.7071 34.7071L30.7071 30.7071L29.2929 29.2929L25.2929 33.2929L26.7071 34.7071ZM31 30V6H29V30H31ZM30.7071 5.29289L26.7071 1.29289L25.2929 2.70711L29.2929 6.70711L30.7071 5.29289Z" fill="#A39D94" mask="url(#path-1-inside-1_615_12473)"/>
<mask id="path-3-inside-2_615_12473" fill="white">
<path d="M24.17 5L27 7.83V28.17L24.17 31H11.83L9 28.17V7.83L11.83 5H24.17ZM24.584 4H11.416L8 7.416V28.584L11.416 32H24.584L28 28.584V7.416L24.584 4V4Z"/>
</mask>
<path d="M24.17 5L27 7.83V28.17L24.17 31H11.83L9 28.17V7.83L11.83 5H24.17ZM24.584 4H11.416L8 7.416V28.584L11.416 32H24.584L28 28.584V7.416L24.584 4V4Z" fill="#A39D94"/>
<path d="M24.17 5L24.8771 4.29289L24.5842 4H24.17V5ZM27 7.83H28V7.41579L27.7071 7.12289L27 7.83ZM27 28.17L27.7071 28.8771L28 28.5842V28.17H27ZM24.17 31V32H24.5842L24.8771 31.7071L24.17 31ZM11.83 31L11.1229 31.7071L11.4158 32H11.83V31ZM9 28.17H8V28.5842L8.29289 28.8771L9 28.17ZM9 7.83L8.29289 7.12289L8 7.41579V7.83H9ZM11.83 5V4H11.4158L11.1229 4.29289L11.83 5ZM11.416 4V3H11.0018L10.7089 3.29289L11.416 4ZM8 7.416L7.29289 6.70889L7 7.00179V7.416H8ZM8 28.584H7V28.9982L7.29289 29.2911L8 28.584ZM11.416 32L10.7089 32.7071L11.0018 33H11.416V32ZM24.584 32V33H24.9982L25.2911 32.7071L24.584 32ZM28 28.584L28.7071 29.2911L29 28.9982V28.584H28ZM28 7.416H29V7.00179L28.7071 6.70889L28 7.416ZM23.4629 5.70711L26.2929 8.53711L27.7071 7.12289L24.8771 4.29289L23.4629 5.70711ZM26 7.83V28.17H28V7.83H26ZM26.2929 27.4629L23.4629 30.2929L24.8771 31.7071L27.7071 28.8771L26.2929 27.4629ZM24.17 30H11.83V32H24.17V30ZM12.5371 30.2929L9.70711 27.4629L8.29289 28.8771L11.1229 31.7071L12.5371 30.2929ZM10 28.17V7.83H8V28.17H10ZM9.70711 8.53711L12.5371 5.70711L11.1229 4.29289L8.29289 7.12289L9.70711 8.53711ZM11.83 6H24.17V4H11.83V6ZM24.584 3H11.416V5H24.584V3ZM10.7089 3.29289L7.29289 6.70889L8.70711 8.12311L12.1231 4.70711L10.7089 3.29289ZM7 7.416V28.584H9V7.416H7ZM7.29289 29.2911L10.7089 32.7071L12.1231 31.2929L8.70711 27.8769L7.29289 29.2911ZM11.416 33H24.584V31H11.416V33ZM25.2911 32.7071L28.7071 29.2911L27.2929 27.8769L23.8769 31.2929L25.2911 32.7071ZM29 28.584V7.416H27V28.584H29ZM28.7071 6.70889L25.2911 3.29289L23.8769 4.70711L27.2929 8.12311L28.7071 6.70889Z" fill="#A39D94" mask="url(#path-3-inside-2_615_12473)"/>
<path d="M25.5 9.03589L25.3536 8.88945L23.1106 6.64645L22.757 7V6.5H22.9649L25.5 9.03511V9.03589ZM25.3536 27.1106L25.5 26.9641V26.9649L22.9649 29.5H22.9641L23.1106 29.3536L25.3536 27.1106ZM12.8894 29.3536L13.0359 29.5H13.0351L10.5 26.9649V26.9641L10.6464 27.1106L12.8894 29.3536ZM10.6464 8.88945L10.5 9.03589V9.03511L13.0351 6.5H13.0359L12.8894 6.64645L10.6464 8.88945Z" fill="#A39D94" stroke="#A39D94"/>
<mask id="path-6-inside-3_615_12473" fill="white">
<path d="M21.35 9L23 10.65V25.35L21.35 27H14.65L13 25.35V10.65L14.65 9H21.35ZM21.764 8H14.236L12 10.236V25.764L14.236 28H21.764L24 25.764V10.236L21.764 8V8Z"/>
</mask>
<path d="M21.35 9L23 10.65V25.35L21.35 27H14.65L13 25.35V10.65L14.65 9H21.35ZM21.764 8H14.236L12 10.236V25.764L14.236 28H21.764L24 25.764V10.236L21.764 8V8Z" fill="#A39D94"/>
<path d="M21.35 9L22.0571 8.29289L21.7642 8H21.35V9ZM23 10.65H24V10.2358L23.7071 9.94289L23 10.65ZM23 25.35L23.7071 26.0571L24 25.7642V25.35H23ZM21.35 27V28H21.7642L22.0571 27.7071L21.35 27ZM14.65 27L13.9429 27.7071L14.2358 28H14.65V27ZM13 25.35H12V25.7642L12.2929 26.0571L13 25.35ZM13 10.65L12.2929 9.94289L12 10.2358V10.65H13ZM14.65 9V8H14.2358L13.9429 8.29289L14.65 9ZM14.236 8V7H13.8218L13.5289 7.29289L14.236 8ZM12 10.236L11.2929 9.52889L11 9.82179V10.236H12ZM12 25.764H11V26.1782L11.2929 26.4711L12 25.764ZM14.236 28L13.5289 28.7071L13.8218 29H14.236V28ZM21.764 28V29H22.1782L22.4711 28.7071L21.764 28ZM24 25.764L24.7071 26.4711L25 26.1782V25.764H24ZM24 10.236H25V9.82179L24.7071 9.52889L24 10.236ZM20.6429 9.70711L22.2929 11.3571L23.7071 9.94289L22.0571 8.29289L20.6429 9.70711ZM22 10.65V25.35H24V10.65H22ZM22.2929 24.6429L20.6429 26.2929L22.0571 27.7071L23.7071 26.0571L22.2929 24.6429ZM21.35 26H14.65V28H21.35V26ZM15.3571 26.2929L13.7071 24.6429L12.2929 26.0571L13.9429 27.7071L15.3571 26.2929ZM14 25.35V10.65H12V25.35H14ZM13.7071 11.3571L15.3571 9.70711L13.9429 8.29289L12.2929 9.94289L13.7071 11.3571ZM14.65 10H21.35V8H14.65V10ZM21.764 7H14.236V9H21.764V7ZM13.5289 7.29289L11.2929 9.52889L12.7071 10.9431L14.9431 8.70711L13.5289 7.29289ZM11 10.236V25.764H13V10.236H11ZM11.2929 26.4711L13.5289 28.7071L14.9431 27.2929L12.7071 25.0569L11.2929 26.4711ZM14.236 29H21.764V27H14.236V29ZM22.4711 28.7071L24.7071 26.4711L23.2929 25.0569L21.0569 27.2929L22.4711 28.7071ZM25 25.764V10.236H23V25.764H25ZM24.7071 9.52889L22.4711 7.29289L21.0569 8.70711L23.2929 10.9431L24.7071 9.52889Z" fill="#A39D94" mask="url(#path-6-inside-3_615_12473)"/>
<path d="M25.8963 2.625L21.6123 8.536" stroke="#A39D94" stroke-miterlimit="10"/>
<path d="M10.1543 2.56055L14.4383 8.47155" stroke="#A39D94" stroke-miterlimit="10"/>
<path d="M23.4785 10.458L29.5625 6.16699" stroke="#A39D94" stroke-miterlimit="10"/>
<path d="M12.3838 10.458L6.30078 6.16699" stroke="#A39D94" stroke-miterlimit="10"/>
<path d="M25.8963 33.4217L21.6123 27.5117" stroke="#A39D94" stroke-miterlimit="10"/>
<path d="M10.1543 33.4852L14.4383 27.5742" stroke="#A39D94" stroke-miterlimit="10"/>
<path d="M23.4785 25.5879L29.5625 29.8799" stroke="#A39D94" stroke-miterlimit="10"/>
<path d="M12.3838 25.5879L6.30078 29.8799" stroke="#A39D94" stroke-miterlimit="10"/>
<path d="M25.8963 33.5106L21.6123 27.5996" stroke="#A39D94" stroke-miterlimit="10"/>
<path d="M10.1543 33.5741L14.4383 27.6641" stroke="#A39D94" stroke-miterlimit="10"/>
<path d="M23.4785 25.6768L29.5625 29.9688" stroke="#A39D94" stroke-miterlimit="10"/>
<path d="M12.3838 25.6768L6.30078 29.9688" stroke="#A39D94" stroke-miterlimit="10"/>
</svg>

<svg width="36" height="36" viewBox="0 0 36 36" fill="none" xmlns="http://www.w3.org/2000/svg"><mask id="path-1-inside-1_615_12473" fill="#fff"><path d="M25.586 3L29 6.414v23.172L25.586 33H10.414L7 29.586V6.414L10.414 3h15.172zM26 2H10L6 6v24l4 4h16l4-4V6l-4-4z"/></mask><path d="M25.586 3L29 6.414v23.172L25.586 33H10.414L7 29.586V6.414L10.414 3h15.172zM26 2H10L6 6v24l4 4h16l4-4V6l-4-4z" fill="#A39D94"/><path d="M25.586 3l.707-.707L26 2h-.414v1zM29 6.414h1V6l-.293-.293-.707.707zm0 23.172l.707.707L30 30v-.414h-1zM25.586 33v1H26l.293-.293-.707-.707zm-15.172 0l-.707.707L10 34h.414v-1zM7 29.586H6V30l.293.293.707-.707zM7 6.414l-.707-.707L6 6v.414h1zM10.414 3V2H10l-.293.293.707.707zM26 2l.707-.707L26.414 1H26v1zM10 2V1h-.414l-.293.293L10 2zM6 6l-.707-.707L5 5.586V6h1zm0 24H5v.414l.293.293L6 30zm4 4l-.707.707.293.293H10v-1zm16 0v1h.414l.293-.293L26 34zm4-4l.707.707.293-.293V30h-1zm0-24h1v-.414l-.293-.293L30 6zm-5.121-2.293l3.414 3.414 1.414-1.414-3.414-3.414-1.414 1.414zM28 6.414v23.172h2V6.414h-2zm.293 22.465l-3.414 3.414 1.414 1.414 3.414-3.414-1.414-1.414zM25.586 32H10.414v2h15.172v-2zm-14.465.293l-3.414-3.414-1.414 1.414 3.414 3.414 1.414-1.414zM8 29.586V6.414H6v23.172h2zM7.707 7.121l3.414-3.414-1.414-1.414-3.414 3.414L7.707 7.12zM10.414 4h15.172V2H10.414v2zM26 1H10v2h16V1zm-16.707.293l-4 4 1.414 1.414 4-4-1.414-1.414zM5 6v24h2V6H5zm.293 24.707l4 4 1.414-1.414-4-4-1.414 1.414zM10 35h16v-2H10v2zm16.707-.293l4-4-1.414-1.414-4 4 1.414 1.414zM31 30V6h-2v24h2zm-.293-24.707l-4-4-1.414 1.414 4 4 1.414-1.414z" fill="#A39D94" mask="url(#path-1-inside-1_615_12473)"/><mask id="path-3-inside-2_615_12473" fill="#fff"><path d="M24.17 5L27 7.83v20.34L24.17 31H11.83L9 28.17V7.83L11.83 5h12.34zm.414-1H11.416L8 7.416v21.168L11.416 32h13.168L28 28.584V7.416L24.584 4z"/></mask><path d="M24.17 5L27 7.83v20.34L24.17 31H11.83L9 28.17V7.83L11.83 5h12.34zm.414-1H11.416L8 7.416v21.168L11.416 32h13.168L28 28.584V7.416L24.584 4z" fill="#A39D94"/><path d="M24.17 5l.707-.707L24.584 4h-.414v1zM27 7.83h1v-.414l-.293-.293L27 7.83zm0 20.34l.707.707.293-.293v-.414h-1zM24.17 31v1h.414l.293-.293L24.17 31zm-12.34 0l-.707.707.293.293h.414v-1zM9 28.17H8v.414l.293.293L9 28.17zM9 7.83l-.707-.707L8 7.416v.414h1zM11.83 5V4h-.414l-.293.293.707.707zm-.414-1V3h-.414l-.293.293.707.707zM8 7.416l-.707-.707L7 7.002v.414h1zm0 21.168H7v.414l.293.293.707-.707zM11.416 32l-.707.707.293.293h.414v-1zm13.168 0v1h.414l.293-.293-.707-.707zM28 28.584l.707.707.293-.293v-.414h-1zm0-21.168h1v-.414l-.293-.293-.707.707zm-4.537-1.709l2.83 2.83 1.414-1.414-2.83-2.83-1.414 1.414zM26 7.83v20.34h2V7.83h-2zm.293 19.633l-2.83 2.83 1.414 1.414 2.83-2.83-1.414-1.414zM24.17 30H11.83v2h12.34v-2zm-11.633.293l-2.83-2.83-1.414 1.414 2.83 2.83 1.414-1.414zM10 28.17V7.83H8v20.34h2zM9.707 8.537l2.83-2.83-1.414-1.414-2.83 2.83 1.414 1.414zM11.83 6h12.34V4H11.83v2zm12.754-3H11.416v2h13.168V3zm-13.875.293L7.293 6.709l1.414 1.414 3.416-3.416-1.414-1.414zM7 7.416v21.168h2V7.416H7zm.293 21.875l3.416 3.416 1.414-1.414-3.416-3.416-1.414 1.414zM11.416 33h13.168v-2H11.416v2zm13.875-.293l3.416-3.416-1.414-1.414-3.416 3.416 1.414 1.414zM29 28.584V7.416h-2v21.168h2zm-.293-21.875l-3.416-3.416-1.414 1.414 3.416 3.416 1.414-1.414z" fill="#A39D94" mask="url(#path-3-inside-2_615_12473)"/><path d="M25.5 9.036l-.146-.147-2.243-2.243-.354.354v-.5h.208L25.5 9.035v0zm-.146 18.075l.146-.147v0L22.965 29.5h0l.146-.146 2.243-2.243zm-12.465 2.243l.147.146h0L10.5 26.965v0l.146.146 2.243 2.243zM10.646 8.889l-.146.147v0L13.035 6.5h0l-.146.146-2.243 2.243z" fill="#A39D94" stroke="#A39D94"/><mask id="path-6-inside-3_615_12473" fill="#fff"><path d="M21.35 9L23 10.65v14.7L21.35 27h-6.7L13 25.35v-14.7L14.65 9h6.7zm.414-1h-7.528L12 10.236v15.528L14.236 28h7.528L24 25.764V10.236L21.764 8z"/></mask><path d="M21.35 9L23 10.65v14.7L21.35 27h-6.7L13 25.35v-14.7L14.65 9h6.7zm.414-1h-7.528L12 10.236v15.528L14.236 28h7.528L24 25.764V10.236L21.764 8z" fill="#A39D94"/><path d="M21.35 9l.707-.707L21.764 8h-.414v1zM23 10.65h1v-.414l-.293-.293-.707.707zm0 14.7l.707.707.293-.293v-.414h-1zM21.35 27v1h.414l.293-.293L21.35 27zm-6.7 0l-.707.707.293.293h.414v-1zM13 25.35h-1v.414l.293.293.707-.707zm0-14.7l-.707-.707-.293.293v.414h1zM14.65 9V8h-.414l-.293.293.707.707zm-.414-1V7h-.414l-.293.293.707.707zM12 10.236l-.707-.707-.293.293v.414h1zm0 15.528h-1v.414l.293.293.707-.707zM14.236 28l-.707.707.293.293h.414v-1zm7.528 0v1h.414l.293-.293-.707-.707zM24 25.764l.707.707.293-.293v-.414h-1zm0-15.528h1v-.414l-.293-.293-.707.707zm-3.357-.529l1.65 1.65 1.414-1.414-1.65-1.65-1.414 1.414zM22 10.65v14.7h2v-14.7h-2zm.293 13.993l-1.65 1.65 1.414 1.414 1.65-1.65-1.414-1.414zM21.35 26h-6.7v2h6.7v-2zm-5.993.293l-1.65-1.65-1.414 1.414 1.65 1.65 1.414-1.414zM14 25.35v-14.7h-2v14.7h2zm-.293-13.993l1.65-1.65-1.414-1.414-1.65 1.65 1.414 1.414zM14.65 10h6.7V8h-6.7v2zm7.114-3h-7.528v2h7.528V7zm-8.235.293l-2.236 2.236 1.414 1.414 2.236-2.236-1.414-1.414zM11 10.236v15.528h2V10.236h-2zm.293 16.235l2.236 2.236 1.414-1.414-2.236-2.236-1.414 1.414zM14.236 29h7.528v-2h-7.528v2zm8.235-.293l2.236-2.236-1.414-1.414-2.236 2.236 1.414 1.414zM25 25.764V10.236h-2v15.528h2zm-.293-16.235l-2.236-2.236-1.414 1.414 2.236 2.236 1.414-1.414z" fill="#A39D94" mask="url(#path-6-inside-3_615_12473)"/><path d="M25.896 2.625l-4.284 5.911M10.154 2.56l4.284 5.912m9.041 1.986l6.084-4.291m-17.179 4.291L6.3 6.167m19.596 27.255l-4.284-5.91m-11.458 5.973l4.284-5.91m9.041-1.987l6.084 4.292m-17.179-4.292L6.3 29.88m19.596 3.63l-4.284-5.91m-11.458 5.974l4.284-5.91m9.041-1.987l6.084 4.292m-17.179-4.292L6.3 29.969" stroke="#A39D94" stroke-miterlimit="10"/></svg>
